light/assets/img/about_me/logo/javascript-svgrepo-com 1.svg

<svg width="800" height="800" viewBox="0 0 800 800" fill="none" xmlns="http://www.w3.org/2000/svg">
<rect width="800" height="800" fill="#1E1E1E"/>
<g style="mix-blend-mode:luminosity" clip-path="url(#clip0_154_2643)">
<path d="M680 0H120C53.7258 0 0 53.7258 0 120V680C0 746.274 53.7258 800 120 800H680C746.274 800 800 746.274 800 680V120C800 53.7258 746.274 0 680 0Z" fill="#F7DF1E"/>
<path d="M506.25 578.125C521.875 604.688 543.75 623.438 579.688 623.438C610.938 623.438 631.25 607.812 631.25 585.938C631.25 560.938 610.938 551.562 576.562 535.938L557.812 528.125C503.125 504.688 467.188 476.562 467.188 415.625C467.188 359.375 509.375 315.625 576.562 315.625C625 315.625 659.375 332.812 682.812 376.562L625 414.062C612.5 390.625 598.438 381.25 576.562 381.25C554.688 381.25 540.625 395.312 540.625 414.062C540.625 435.938 554.688 445.312 587.5 459.375L606.25 467.188C670.312 495.312 706.25 521.875 706.25 585.938C706.25 653.125 653.125 690.625 581.25 690.625C510.938 690.625 465.625 657.812 443.75 614.062L506.25 578.125ZM240.625 584.375C253.125 604.688 262.5 623.438 289.062 623.438C314.062 623.438 329.688 614.062 329.688 576.562V317.188H404.688V573.438C404.688 651.562 359.375 685.938 292.188 685.938C231.25 685.938 196.875 654.688 179.688 617.188L240.625 584.375Z" fill="black"/>
</g>
<defs>
<clipPath id="clip0_154_2643">
<rect width="800" height="800" fill="white"/>
</clipPath>
</defs>
</svg>

<?xml version="1.0" encoding="UTF-8"?>
<svg id="Layer_1" data-name="Layer 1" xmlns="http://www.w3.org/2000/svg" xmlns:xlink="http://www.w3.org/1999/xlink" viewBox="0 0 800 800">
  <defs>
    <style>
      .cls-1, .cls-2, .cls-3 {
        stroke-width: 0px;
      }

      .cls-2 {
        fill: none;
      }

      .cls-3 {
        fill: #d1d1d1;
      }

      .cls-4 {
        clip-path: url(#clippath);
      }

      .cls-5 {
        opacity: .3;
      }
    </style>
    <clipPath id="clippath">
      <rect class="cls-2" width="800" height="800"/>
    </clipPath>
  </defs>
  <g class="cls-5">
    <g class="cls-4">
      <g>
        <path class="cls-3" d="M680,0H120C53.73,0,0,53.73,0,120v560c0,66.27,53.73,120,120,120h560c66.27,0,120-53.73,120-120V120c0-66.27-53.73-120-120-120Z"/>
        <path class="cls-1" d="M506.25,578.12c15.62,26.56,37.5,45.31,73.44,45.31,31.25,0,51.56-15.63,51.56-37.5,0-25-20.31-34.38-54.69-50l-18.75-7.81c-54.69-23.44-90.62-51.56-90.62-112.5,0-56.25,42.19-100,109.37-100,48.44,0,82.81,17.19,106.25,60.94l-57.81,37.5c-12.5-23.44-26.56-32.81-48.44-32.81s-35.94,14.06-35.94,32.81c0,21.88,14.06,31.25,46.88,45.31l18.75,7.81c64.06,28.12,100,54.69,100,118.75s-53.12,104.69-125,104.69-115.62-32.81-137.5-76.56l62.5-35.94ZM240.62,584.38c12.5,20.31,21.88,39.06,48.44,39.06,25,0,40.63-9.38,40.63-46.88v-259.37h75v256.25c0,78.12-45.31,112.5-112.5,112.5-60.94,0-95.31-31.25-112.5-68.75l60.94-32.81Z"/>
      </g>
    </g>
  </g>
</svg>
